X:1
T:James Gibb editions
T:Psalm 125 - Farnaby
T:#
%%score [ 1 2 3 4 ]
L:1/8
Q:1/4=170
M:4/4
K:F
V:1 treble nm="S" snm="S"
V:2 treble nm="A" snm="A"
V:3 treble-8 nm="T" snm="T"
V:4 bass nm="B" snm="B"
V:1
"^Such as in God the Lord do trust""^Giles Farnaby\n(1563-1640)""^William Kethe\n(?-1594)" A8 | %1
w: Such|
w: As|
w: For|
w: But|
 A4 d4 | c4 B4 | A4 G4 | ^F8 || =f8 | f4 f4 |[M:4/4] e4 c4 | c4 =B4 | c8 || A8 | c4 d4 | d4 c4 | %13
w: as in|God the|Lord do|trust,|As|Zi- on|mount shall|firm- ly|stand,|And|be re-|mo- ved|
w: ma- ny|moun- tains|huge and|great|Je-|ru- sa-|lem a-|bout do|close,|So|will the|Lord be|
w: though the|righ- teous|try doth|he,|By|mak- ing|wick- ed|men his|rod,|Lest|they through|grief for-|
w: as for|such as|turn a-|side|By|crook- ed|ways which|they out|sought,|The|Lord will|sure- ly|
 d4 c4 | A8 || f8 | f4 d4 | g4 (f2 e2) | d4 c4 | c8 || f8 | f4 f4 | f4 d4 | d8 || f8 | e4 d4 | %26
w: at no|hand:|The|Lord will|count them *|right and|just,|So|that they|shall be|sure|For|e- ver|
w: un- to|those|who|on his|god- ly *|will do|wait:|Such|are to|him so|dear|They|ne- ver|
w: sake their|God,|it|shall not|al- ways *|their lot|be.|Give,|Lord, to|us thy|light|Whose|hearts are|
w: bring to|naught:|with|wor- kers|vile they *|shall a-|bide;|But|peace with|Is- ra-|el|~for|e- ver-|
 c6 B2 | A8 |] %28
w: to en-|dure.|
w: need to|fear.|
w: true and|right.|
w: more shall|dwell.|
V:2
 F8 | F4 F4 | F4 F4 | F4 D4 | D8 || A8 | A4 D4 |[M:4/4] G6 E2 | A4 G4 | E8 || F8 | F4 F4 | D4 F4 | %13
w: Such|as in|God the|Lord do|trust,|As|Zi- on|mount shall|firm- ly|stand,|And|be re-|mo- ved|
w: As|ma- ny|moun- tains|huge and|great|Je-|ru- sa-|lem a-|bout do|close,|So|will the|Lord be|
w: For|though the|righ- teous|try doth|he,|By|mak- ing|wick- ed|men his|rod,|Lest|they through|grief for-|
w: But|as for|such as|turn a-|side|By|crook- ed|ways which|they out|sought,|The|Lord will|sure- ly|
 F4 E4 | F8 || A8 | A4 B4 | G4 c4 | B4 G4 | A8 || A8 | A4 B4 | A4 G4 | ^F8 || D8 | E4 F4 | F4 E4 | %27
w: at no|hand:|The|Lord will|count them|right and|just,,|So|that they|shall be|sure|For|e- ver|to en-|
w: un- to|those|who|on his|god- ly|will do|wait:|Such|are to|him so|dear|They|ne- ver|need to|
w: sake their|God,|it|shall not|al- ways|their lot|be.|Give,|Lord, to|us thy|light|Whose|hearts are|true and|
w: bring to|naught:|with|wor- kers|vile they|shall a-|bide;|But|peace with|Is- ra-|el|~for|e- ver-|more shall|
 F8 |] %28
w: dure.|
w: fear.|
w: right.|
w: dwell.|
V:3
 c8 | c4 B4 | A4 d4 | c4 B4 | A8 || F8 | A4 B4 |[M:4/4][K:treble-8] c4 c4 | d4 d4 | c8 || c8 | %11
w: Such|as in|God the|Lord do|trust,|As|Zi- on|mount shall|firm- ly|stand,|And|
w: As|ma- ny|moun- tains|huge and|great|Je-|ru- sa-|lem a-|bout do|close,|So|
w: For|though the|righ- teous|try doth|he,|By|mak- ing|wick- ed|men his|rod,|Lest|
w: But|as for|such as|turn a-|side|By|crook- ed|ways which|they out|sought,|The|
 A4 A4 | F4 A4 | G4 G4 | F8 || c8 | d4 d4 | e4 c4 | d4 e4 | f8 || c8 | d4 d4 | c4 B4 | A8 || F8 | %25
w: be re-|mo- ved|at no|hand:|The|Lord will|count them|right and|just,,|So|that they|shall be|sure|For|
w: will the|Lord be|un- to|those|who|on his|god- ly|will do|wait:|Such|are to|him so|dear|They|
w: they through|grief for-|sake their|God,|it|shall not|al- ways|their lot|be.|Give,|Lord, to|us thy|light|Whose|
w: Lord will|sure- ly|bring to|naught:|with|wor- kers|vile they|shall a-|bide;|But|peace with|Is- ra-|el|~for|
 G4 B4 | A4 G4 | F8 |] %28
w: e- ver|to en-|dure.|
w: ne- ver|need to|fear.|
w: hearts are|true and|right.|
w: e- ver-|more shall|dwell.|
V:4
 F,8 | F,4 B,,4 | F,6 D,2 | F,4 G,4 | D,8 || D,8 | F,4 D,4 |[M:4/4] C,4 E,4 | F,4 G,4 | C,8 || %10
w: Such|as in|God the|Lord do|trust,|As|Zi- on|mount shall|firm- ly|stand,|
w: As|ma- ny|moun- tains|huge and|great|Je-|ru- sa-|lem a-|bout do|close,|
w: For|though the|righ- teous|try doth|he,|By|mak- ing|wick- ed|men his|rod,|
w: But|as for|such as|turn a-|side|By|crook- ed|ways which|they out|sought,|
 F,4 F,4- | F,4 D,4 | D,4 A,,4 | B,,4 C,4 | F,8 || F,8 | F,4 G,4 | G,4 A,4 | B,4 C4 | F,8 || F,8 | %21
w: And be|* re-|mo- ved|at no|hand:|The|Lord will|count them|right and|just,,|So|
w: So will|* the|Lord be|un- to|those|who|on his|god- ly|will do|wait:|Such|
w: Lest they|* through|grief for-|sake their|God,|it|shall not|al- ways|their lot|be.|Give,|
w: The Lord|* will|sure- ly|bring to|naught:|with|wor- kers|vile they|shall a-|bide;|But|
 D,4 B,,4 | F,4 G,4 | D,8 || D,8 | C,4 B,,4 | C,4 C,4 | F,8 |] %28
w: that they|shall be|sure|For|e- ver|to en-|dure.|
w: are to|him so|dear|They|ne- ver|need to|fear.|
w: Lord, to|us thy|light|Whose|hearts are|true and|right.|
w: peace with|Is- ra-|el|~for|e- ver-|more shall|dwell.|

